projects/plugins/boost/app/assets/src/js/svg/jetpack-green.svg

<svg fill="none" height="32" viewBox="0 0 32 32" width="32" xmlns="http://www.w3.org/2000/svg"><path clip-rule="evenodd" d="m32 16c0 8.8366-7.1634 16-16 16-8.83656 0-16-7.1634-16-16 0-8.83655 7.16344-16 16-16 8.8366 0 16 7.16345 16 16zm-16.8244 2.6566v-15.48091l-7.96948 15.48091zm1.6184-5.3432v15.5114l8-15.5114z" fill="#069e08" fill-rule="evenodd"/></svg>

<svg width="32" height="32" viewBox="0 0 32 32" fill="none" xmlns="http://www.w3.org/2000/svg">
<path fill-rule="evenodd" clip-rule="evenodd" d="M32 16C32 24.8366 24.8366 32 16 32C7.16344 32 0 24.8366 0 16C0 7.16345 7.16344 0 16 0C24.8366 0 32 7.16345 32 16ZM15.1756 18.6566V3.17569L7.20612 18.6566H15.1756ZM16.794 13.3134V28.8248L24.794 13.3134H16.794Z" fill="#069E08"/>
</svg>
